assets/Keycap 2/Flat/keycap_2_flat.svg

<svg width="32" height="32" viewBox="0 0 32 32" fill="none" xmlns="http://www.w3.org/2000/svg">
<path d="M2 6C2 3.79086 3.79086 2 6 2H26C28.2091 2 30 3.79086 30 6V26C30 28.2091 28.2091 30 26 30H6C3.79086 30 2 28.2091 2 26V6Z" fill="#00A6ED"/>
<path d="M16.2996 11.2515C15.9907 11.2669 15.5009 11.4202 14.9505 12.0749C14.3285 12.8147 13.2246 12.9102 12.4848 12.2883C11.745 11.6663 11.6495 10.5624 12.2715 9.82259C13.3492 8.54068 14.7017 7.82708 16.1246 7.75586C17.5241 7.68582 18.8049 8.24904 19.7181 9.16023C21.623 11.0608 21.8591 14.304 19.4163 16.9278C18.7054 17.6914 17.8422 18.5934 16.971 19.5038C16.5711 19.9216 16.1696 20.3412 15.7803 20.75H19.8796C20.8461 20.75 21.6296 21.5335 21.6296 22.5C21.6296 23.4665 20.8461 24.25 19.8796 24.25H12.8607C10.9797 24.25 9.85452 22.0057 11.2008 20.5216C12.0523 19.583 13.3166 18.2608 14.5222 16.9999C15.3882 16.0943 16.2239 15.2204 16.8547 14.5428C17.5211 13.8271 17.6959 13.1997 17.6976 12.759C17.6994 12.3017 17.518 11.9092 17.246 11.6379C16.9726 11.3651 16.6319 11.2349 16.2996 11.2515Z" fill="white"/>
</svg>

<svg xmlns="http://www.w3.org/2000/svg" width="32" height="32" fill="none"><path fill="#00A6ED" d="M2 6a4 4 0 0 1 4-4h20a4 4 0 0 1 4 4v20a4 4 0 0 1-4 4H6a4 4 0 0 1-4-4V6Z"/><path fill="#fff" d="M16.3 11.252c-.31.015-.8.168-1.35.823a1.75 1.75 0 0 1-2.678-2.252c1.077-1.282 2.43-1.996 3.853-2.067 1.4-.07 2.68.493 3.593 1.404 1.905 1.9 2.141 5.144-.302 7.768-.71.763-1.574 1.665-2.445 2.576-.4.418-.801.837-1.19 1.246h4.099a1.75 1.75 0 1 1 0 3.5h-7.02c-1.88 0-3.005-2.244-1.66-3.728.852-.939 2.117-2.261 3.322-3.522.866-.906 1.702-1.78 2.333-2.457.666-.716.84-1.343.843-1.784.001-.457-.18-.85-.452-1.121a1.253 1.253 0 0 0-.946-.386Z"/></svg>
